school/img/country/GT.svg

<svg width="13" height="12" viewBox="0 0 13 12" fill="none" xmlns="http://www.w3.org/2000/svg">
<rect x="0.25" y="0.25" width="12.5" height="11.5" rx="1.75" fill="white" stroke="#F5F5F5" stroke-width="0.5"/>
<mask id="mask0" mask-type="alpha" maskUnits="userSpaceOnUse" x="0" y="0" width="13" height="12">
<rect x="0.25" y="0.25" width="12.5" height="11.5" rx="1.75" fill="white" stroke="white" stroke-width="0.5"/>
</mask>
<g mask="url(#mask0)">
<rect x="8.66675" width="4.33333" height="12" fill="#63AEE3"/>
<path fill-rule="evenodd" clip-rule="evenodd" d="M0 12H4.33333V0H0V12Z" fill="#63AEE3"/>
<path d="M5.92851 5.60004C5.92851 5.23185 5.63003 4.93337 5.26184 4.93337C4.89365 4.93337 4.59517 5.23185 4.59517 5.60004H5.92851ZM5.47952 7.5183C5.7741 7.73918 6.19196 7.67945 6.41284 7.38487C6.63373 7.0903 6.57399 6.67244 6.27942 6.45155L5.47952 7.5183ZM6.74137 6.43505C6.45757 6.66962 6.41766 7.08983 6.65223 7.37363C6.88679 7.65743 7.30701 7.69735 7.59081 7.46278L6.74137 6.43505ZM8.40467 5.60004C8.40467 5.23185 8.1062 4.93337 7.73801 4.93337C7.36982 4.93337 7.07134 5.23185 7.07134 5.60004H8.40467ZM4.59517 5.60004C4.59517 6.36396 4.91451 7.09462 5.47952 7.5183L6.27942 6.45155C6.10586 6.32141 5.92851 6.01905 5.92851 5.60004H4.59517ZM7.59081 7.46278C8.11088 7.03294 8.40467 6.33378 8.40467 5.60004H7.07134C7.07134 5.99973 6.90915 6.29638 6.74137 6.43505L7.59081 7.46278Z" fill="#628A40"/>
<path fill-rule="evenodd" clip-rule="evenodd" d="M6.50003 6.39999C6.84192 6.39999 7.11908 6.04182 7.11908 5.59999C7.11908 5.15816 6.84192 4.79999 6.50003 4.79999C6.15814 4.79999 5.88098 5.15816 5.88098 5.59999C5.88098 6.04182 6.15814 6.39999 6.50003 6.39999Z" fill="#DCC26D"/>
</g>
</svg>

<svg width="13" height="12" fill="none" xmlns="http://www.w3.org/2000/svg"><rect x=".25" y=".25" width="12.5" height="11.5" rx="1.75" fill="#fff" stroke="#F5F5F5" stroke-width=".5"/><mask id="a" maskUnits="userSpaceOnUse" x="0" y="0" width="13" height="12"><rect x=".25" y=".25" width="12.5" height="11.5" rx="1.75" fill="#fff" stroke="#fff" stroke-width=".5"/></mask><g mask="url(#a)"><path fill="#63AEE3" d="M8.667 0H13v12H8.667z"/><path fill-rule="evenodd" clip-rule="evenodd" d="M0 12h4.333V0H0v12z" fill="#63AEE3"/><path d="M5.929 5.6a.667.667 0 00-1.334 0H5.93zm-.45 1.918a.667.667 0 00.8-1.066l-.8 1.066zm1.262-1.083a.667.667 0 10.85 1.028l-.85-1.028zM8.405 5.6a.667.667 0 10-1.334 0h1.334zm-3.81 0c0 .764.32 1.495.885 1.918l.8-1.066c-.174-.13-.351-.433-.351-.852H4.595zm2.996 1.863c.52-.43.814-1.13.814-1.863H7.07c0 .4-.162.696-.33.835l.85 1.028z" fill="#628A40"/><path fill-rule="evenodd" clip-rule="evenodd" d="M6.5 6.4c.342 0 .62-.358.62-.8 0-.442-.278-.8-.62-.8-.342 0-.619.358-.619.8 0 .442.277.8.619.8z" fill="#DCC26D"/></g></svg>
